src/components/Home/icons/brain.svg

<svg width="22" height="22" viewBox="0 0 22 22" xmlns="http://www.w3.org/2000/svg">
  <path fill-rule="evenodd" clip-rule="evenodd" d="M6.69136 20.75C6.69136 21.164 7.02736 21.5 7.44136 21.5H14.9414C15.3554 21.5 15.6914 21.164 15.6914 20.75C15.6914 18.7302 13.7159 17 11.1914 17C8.66686 17 6.69136 18.7302 6.69136 20.75ZM8.35711 20C8.77036 19.1038 9.90736 18.5 11.1914 18.5C12.4754 18.5 13.6124 19.1038 14.0256 20H8.35711ZM11.1914 10.25C9.53536 10.25 8.19136 11.594 8.19136 13.25C8.19136 14.906 9.53536 16.25 11.1914 16.25C12.8474 16.25 14.1914 14.906 14.1914 13.25C14.1914 11.594 12.8474 10.25 11.1914 10.25ZM11.1914 11.75C12.0194 11.75 12.6914 12.422 12.6914 13.25C12.6914 14.078 12.0194 14.75 11.1914 14.75C10.3634 14.75 9.69136 14.078 9.69136 13.25C9.69136 12.422 10.3634 11.75 11.1914 11.75ZM4.95286 6.42725C4.82161 6.1865 4.56886 6.0365 4.29436 6.0365C4.01986 6.0365 3.76786 6.1865 3.63586 6.42725L2.87161 7.82825L1.30336 8.12225C1.03336 8.1725 0.812855 8.36675 0.728105 8.62775C0.643355 8.88875 0.707855 9.17525 0.896105 9.37475L1.99261 10.5343L1.78711 12.1168C1.75186 12.389 1.86811 12.659 2.09011 12.8202C2.31211 12.9815 2.60461 13.0085 2.85286 12.8907L4.29436 12.2067L5.73661 12.8907C5.98411 13.0085 6.27661 12.9815 6.49861 12.8202C6.72061 12.659 6.83686 12.389 6.80161 12.1168L6.59611 10.5343L7.69261 9.37475C7.88161 9.17525 7.94611 8.88875 7.86136 8.62775C7.77586 8.36675 7.55536 8.1725 7.28611 8.12225L5.71711 7.82825L4.95286 6.42725ZM18.7469 6.42725C18.6149 6.1865 18.3629 6.0365 18.0884 6.0365C17.8139 6.0365 17.5611 6.1865 17.4299 6.42725L16.6656 7.82825L15.0966 8.12225C14.8274 8.1725 14.6069 8.36675 14.5214 8.62775C14.4366 8.88875 14.5011 9.17525 14.6901 9.37475L15.7866 10.5343L15.5811 12.1168C15.5459 12.389 15.6621 12.659 15.8841 12.8202C16.1061 12.9815 16.3986 13.0085 16.6461 12.8907L18.0884 12.2067L19.5299 12.8907C19.7781 13.0085 20.0706 12.9815 20.2926 12.8202C20.5146 12.659 20.6309 12.389 20.5956 12.1168L20.3901 10.5343L21.4866 9.37475C21.6749 9.17525 21.7394 8.88875 21.6546 8.62775C21.5699 8.36675 21.3494 8.1725 21.0794 8.12225L19.5111 7.82825L18.7469 6.42725ZM4.29436 8.35325L4.57036 8.8595C4.67836 9.05675 4.86961 9.1955 5.09086 9.2375L5.65786 9.34325L5.26186 9.7625C5.10661 9.926 5.03386 10.151 5.06311 10.3745L5.13736 10.946L4.61611 10.6993C4.41286 10.6025 4.17661 10.6025 3.97261 10.6993L3.45211 10.946L3.52636 10.3745C3.55486 10.151 3.48211 9.926 3.32761 9.7625L2.93086 9.34325L3.49786 9.2375C3.71911 9.1955 3.91036 9.05675 4.01836 8.8595L4.29436 8.35325ZM18.0884 8.35325L18.3644 8.8595C18.4724 9.05675 18.6636 9.1955 18.8849 9.2375L19.4519 9.34325L19.0551 9.7625C18.9006 9.926 18.8279 10.151 18.8564 10.3745L18.9306 10.946L18.4101 10.6993C18.2061 10.6025 17.9699 10.6025 17.7666 10.6993L17.2454 10.946L17.3196 10.3745C17.3489 10.151 17.2761 9.926 17.1209 9.7625L16.7249 9.34325L17.2919 9.2375C17.5131 9.1955 17.7044 9.05675 17.8124 8.8595L18.0884 8.35325ZM11.8499 0.89075C11.7186 0.65 11.4659 0.5 11.1914 0.5C10.9169 0.5 10.6641 0.65 10.5329 0.89075L9.53536 2.72075L7.48711 3.104C7.21711 3.15425 6.99661 3.3485 6.91186 3.6095C6.82711 3.8705 6.89161 4.157 7.07985 4.3565L8.51161 5.87075L8.24311 7.937C8.20786 8.20925 8.32411 8.47925 8.54611 8.6405C8.76811 8.80175 9.06061 8.82875 9.30886 8.711L11.1914 7.81775L13.0739 8.711C13.3221 8.82875 13.6146 8.80175 13.8366 8.6405C14.0586 8.47925 14.1749 8.20925 14.1396 7.937L13.8711 5.87075L15.3029 4.3565C15.4911 4.157 15.5556 3.8705 15.4709 3.6095C15.3861 3.3485 15.1656 3.15425 14.8956 3.104L12.8474 2.72075L11.8499 0.89075ZM11.1914 2.81675L11.7014 3.75125C11.8094 3.94925 11.9999 4.088 12.2219 4.12925L13.2681 4.325L12.5369 5.099C12.3816 5.2625 12.3089 5.4875 12.3381 5.711L12.4746 6.76625L11.5131 6.31025C11.3091 6.2135 11.0736 6.2135 10.8696 6.31025L9.9081 6.76625L10.0446 5.711C10.0739 5.4875 10.0011 5.2625 9.84586 5.099L9.1146 4.325L10.1609 4.12925C10.3829 4.088 10.5734 3.94925 10.6814 3.75125L11.1914 2.81675Z" />
</svg>

<svg xmlns="http://www.w3.org/2000/svg" width="22" height="22">
  <path fill-rule="evenodd" d="M6.691 20.75c0 .414.336.75.75.75h7.5a.75.75 0 0 0 .75-.75c0-2.02-1.975-3.75-4.5-3.75-2.524 0-4.5 1.73-4.5 3.75ZM8.357 20c.413-.896 1.55-1.5 2.834-1.5s2.421.604 2.835 1.5H8.357Zm2.834-9.75a3.001 3.001 0 0 0 0 6 3.001 3.001 0 0 0 0-6Zm0 1.5a1.5 1.5 0 1 1 0 3.001 1.5 1.5 0 0 1 0-3.001ZM4.953 6.427a.75.75 0 0 0-1.317 0l-.764 1.401-1.569.294a.75.75 0 0 0-.407 1.253l1.097 1.16-.206 1.582a.75.75 0 0 0 1.066.774l1.441-.684 1.443.684a.75.75 0 0 0 1.065-.774l-.206-1.583 1.097-1.16a.75.75 0 0 0-.407-1.252l-1.569-.294-.764-1.4Zm13.794 0a.751.751 0 0 0-1.317 0l-.764 1.401-1.57.294a.752.752 0 0 0-.406 1.253l1.097 1.16-.206 1.582a.75.75 0 0 0 1.065.774l1.442-.684 1.442.684a.75.75 0 0 0 1.066-.774l-.206-1.583 1.097-1.16a.75.75 0 0 0-.408-1.252l-1.568-.294-.764-1.4ZM4.294 8.353l.276.507c.108.197.3.335.52.378l.568.105-.396.42a.748.748 0 0 0-.199.611l.074.572-.52-.247a.75.75 0 0 0-.644 0l-.52.247.073-.572a.753.753 0 0 0-.198-.612l-.397-.419.567-.105a.754.754 0 0 0 .52-.378l.276-.507Zm13.794 0 .276.507c.108.197.3.335.52.378l.568.105-.397.42a.753.753 0 0 0-.199.611l.075.572-.52-.247a.75.75 0 0 0-.644 0l-.522.247.075-.572a.748.748 0 0 0-.2-.612l-.395-.419.567-.105a.754.754 0 0 0 .52-.378l.276-.507ZM11.85.891a.75.75 0 0 0-1.317 0l-.998 1.83-2.048.383a.75.75 0 0 0-.407 1.252l1.432 1.515-.269 2.066a.75.75 0 0 0 1.066.774l1.882-.893 1.883.893a.75.75 0 0 0 1.066-.774l-.269-2.066 1.432-1.515a.751.751 0 0 0-.407-1.252l-2.049-.383L11.85.89Zm-.659 1.926.51.934a.748.748 0 0 0 .52.378l1.047.196-.731.774a.748.748 0 0 0-.199.612l.137 1.055-.962-.456a.75.75 0 0 0-.643 0l-.962.456.137-1.055a.748.748 0 0 0-.2-.612l-.73-.774 1.046-.196a.748.748 0 0 0 .52-.378l.51-.934Z" clip-rule="evenodd"/>
</svg>
